packages/foundations/assets/icons/functional/images/audio & video/skip_forward_28.svg

<svg width="28" height="28" viewBox="0 0 28 28" fill="none" xmlns="http://www.w3.org/2000/svg">
<g clip-path="url(#clip0_2202_587)">
<path fill-rule="evenodd" clip-rule="evenodd" d="M7.84797 6.125C8.20297 6.125 8.55797 6.235 8.85897 6.425L17.637 12.578C18.102 12.906 18.375 13.426 18.375 14C18.375 14.574 18.102 15.094 17.637 15.422L8.85897 21.574C8.55897 21.766 8.20297 21.875 7.84797 21.875C6.89097 21.875 6.12497 21.082 6.12497 20.125V7.875C6.12497 6.918 6.91797 6.125 7.84797 6.125ZM7.87497 7.875L7.90197 20.125L16.625 14L7.87497 7.875ZM20.125 20.125V7.875C20.125 7.383 20.508 7 21 7C21.492 7 21.875 7.383 21.875 7.875V20.125C21.8764 20.2403 21.8548 20.3548 21.8114 20.4616C21.7679 20.5684 21.7035 20.6655 21.622 20.747C21.5404 20.8286 21.4434 20.893 21.3366 20.9364C21.2297 20.9799 21.1153 21.0015 21 21C20.8847 21.0015 20.7702 20.9799 20.6634 20.9364C20.5566 20.893 20.4595 20.8286 20.378 20.747C20.2964 20.6655 20.232 20.5684 20.1886 20.4616C20.1451 20.3548 20.1235 20.2403 20.125 20.125Z" fill="#1A1C1F"/>
</g>
<defs>
<clipPath id="clip0_2202_587">
<rect width="28" height="28" fill="white"/>
</clipPath>
</defs>
</svg>

<svg xmlns="http://www.w3.org/2000/svg" width="28" height="28" fill="none"><g clip-path="url(#a)"><path fill="#1A1C1F" fill-rule="evenodd" d="M7.848 6.125c.355 0 .71.11 1.011.3l8.778 6.153c.465.328.738.848.738 1.422s-.273 1.094-.738 1.422l-8.778 6.152c-.3.192-.656.301-1.011.301-.957 0-1.723-.793-1.723-1.75V7.875c0-.957.793-1.75 1.723-1.75m.027 1.75.027 12.25L16.625 14zm12.25 12.25V7.875c0-.492.383-.875.875-.875s.875.383.875.875v12.25A.866.866 0 0 1 21 21a.863.863 0 0 1-.875-.875" clip-rule="evenodd"/></g><defs><clipPath id="a"><path fill="#fff" d="M0 0h28v28H0z"/></clipPath></defs></svg>
